X: 11
T: The Star Of Munster
R: reel
M: 4/4
L: 1/8
K: Ador
|: c2 Ac BAGB | AGEF GEDG | EAAG ABcd |e2 afge d2 |
c2 Ac BAGB | AGEF GEDG | EAAG cded |1 e2 dB A3B :|2 e2 dB A3g||
|:a3b ageg | agbg agef | g3a gede |g2 af gedg |
a3b ageg | agbg agef | g4 a4| b3 a ge d2 :||


Tune 197	Setting 12854

